X: 35468
T: Roxburgh Castle
R: hornpipe
M: 4/4
K: Amajor
(3EFG|AGAc ecAc|dcdf ecAc|d2fd c2ec|BABc BdcB|
AGAc ecAc|dcdf ecAc|eagf edcB|c2A2 A2:|
|:(3efg|aece fece|aece fece|d2bd c2ac|BABc BdcB|
AGAc ecAc|dcdf ecAc|eagf edcB|c2A2 A2:|

